X: 34188
T: Reel Of Mullinavat, The
R: reel
M: 4/4
K: Edorian
ef|:gfed edBA|G3B EDBA|GEE2 G3A|Beed Bdef|
gfed edBA|G3B EDBA|GEE2 G3A|Beed e2 ef:|
|:gBB2 gabg|afde fgaf|gBB2 gabg|afdf e2ef|
gBB2 gbag|afde fga=c'|bgaf gfed|Bgfg e2ef:|

